; generated by Slic3r 1.30.0.25-prusa3d-release_candidate_1_3-win64 on 2022-01-15 at 17:49:54

; external perimeters extrusion width = 0.45mm
; perimeters extrusion width = 0.45mm
; infill extrusion width = 0.45mm
; solid infill extrusion width = 0.45mm
; top infill extrusion width = 0.45mm

M107
M190 S50 ; set bed temperature and wait for it to be reached
M201 X1000 Y1000 E600
M109 S210
M92 E161.3
G28
G92 E0.0
G1 X8.0 F2000
G1 Y60.0 E4.0  F1000.0
G1 Y100.0 E8.5  F1000.0
G92 E0.0
G21 ; set units to millimeters
G90 ; use absolute coordinates
M83 ; use relative distances for extrusion
G1 E-1.50000 F1800.00000
G1 Z0.200 F6000.000
G1 X93.261 Y92.791 F6000.000
G1 E1.50000 F1800.00000
G1 F1272.164
G1 E0.01803 F1800.000 ; pressure advance
G1 X95.003 Y92.279 E0.06147
G1 X105.003 Y92.279 E0.33849
G1 X106.547 Y92.673 E0.05391
G1 X107.713 Y93.758 E0.05391
G1 X108.224 Y95.500 E0.06147
G1 X108.224 Y104.500 E0.30464
G1 X107.831 Y106.044 E0.05391
G1 X106.746 Y107.210 E0.05391
G1 X105.003 Y107.721 E0.06147
G1 X95.003 Y107.721 E0.33849
G1 X93.460 Y107.328 E0.05391
G1 X92.294 Y106.243 E0.05391
G1 X91.782 Y104.500 E0.06147
G1 X91.782 Y95.500 E0.30464
G1 X92.176 Y93.957 E0.05391
G1 X93.220 Y92.835 E0.05188
G1 X93.651 Y93.032 F6000.000
G1 F1272.164
G1 X95.003 Y92.686 E0.04725
G1 X105.003 Y92.686 E0.33849
G1 X106.437 Y93.079 E0.05033
G1 X107.471 Y94.148 E0.05033
G1 X107.817 Y95.500 E0.04725
G1 X107.817 Y104.500 E0.30464
G1 X107.425 Y105.934 E0.05033
G1 X106.356 Y106.968 E0.05033
G1 X105.003 Y107.314 E0.04725
G1 X95.003 Y107.314 E0.33849
G1 X93.569 Y106.921 E0.05033
G1 X92.535 Y105.852 E0.05033
G1 X92.189 Y104.500 E0.04725
G1 X92.189 Y95.500 E0.30464
G1 X92.582 Y94.066 E0.05033
G1 X93.608 Y93.074 E0.04830
G1 X94.035 Y93.296 F6000.000
G1 F1272.164
G1 X95.003 Y93.093 E0.03347
G1 X105.003 Y93.093 E0.33849
G1 X106.319 Y93.485 E0.04648
G1 X107.207 Y94.532 E0.04648
G1 X107.410 Y95.500 E0.03347
G1 X107.410 Y104.500 E0.30464
G1 X107.019 Y105.816 E0.04648
G1 X105.971 Y106.704 E0.04648
G1 X105.003 Y106.907 E0.03347
G1 X95.003 Y106.907 E0.33849
G1 X93.687 Y106.516 E0.04648
G1 X92.799 Y105.468 E0.04648
G1 X92.596 Y104.500 E0.03347
G1 X92.596 Y95.500 E0.30464
G1 X92.988 Y94.184 E0.04648
G1 X93.990 Y93.335 E0.04445
G1 E-0.01803 F1800.000 ; pressure discharge
G1 E-1.50000 F1800.00000
G1 X103.047 Y99.725 F6000.000
G1 E1.50000 F1800.00000
G1 F1017.731
G1 E0.01154 F1800.000 ; pressure advance
G1 X101.317 Y99.725 E0.05856
G1 X101.578 Y99.926 E0.01114
G1 X101.932 Y100.387 E0.01968
G1 X102.154 Y100.924 E0.01968
G1 X102.230 Y101.500 E0.01968
G1 X102.154 Y102.077 E0.01968
G1 X101.932 Y102.614 E0.01968
G1 X101.578 Y103.075 E0.01968
G1 X101.117 Y103.429 E0.01968
G1 X100.580 Y103.651 E0.01968
G1 X100.003 Y103.727 E0.01968
G1 X99.427 Y103.651 E0.01968
G1 X98.890 Y103.429 E0.01968
G1 X98.429 Y103.075 E0.01968
G1 X98.075 Y102.614 E0.01968
G1 X97.852 Y102.077 E0.01968
G1 X97.776 Y101.500 E0.01968
G1 X97.838 Y101.030 E0.01606
G1 X98.072 Y100.391 E0.02304
G1 X98.429 Y99.926 E0.01984
G1 X98.690 Y99.725 E0.01114
G1 X96.955 Y99.725 E0.05871
G1 X96.955 Y97.275 E0.08293
G1 X103.047 Y97.275 E0.20619
G1 X103.047 Y99.665 E0.08091
G1 X103.063 Y100.125 F6000.000
G1 X103.454 Y100.132 F6000.000
G1 F1017.731
G1 X103.454 Y96.868 E0.11050
G1 X96.548 Y96.868 E0.23375
G1 X96.548 Y100.132 E0.11049
G1 X97.757 Y100.132 E0.04091
G1 X97.711 Y100.192 E0.00256
G1 X97.440 Y100.932 E0.02667
G1 X97.366 Y101.500 E0.01939
G1 X97.456 Y102.183 E0.02331
G1 X97.719 Y102.819 E0.02331
G1 X98.138 Y103.365 E0.02331
G1 X98.684 Y103.784 E0.02331
G1 X98.887 Y103.868 E0.00741
G1 X95.635 Y103.868 E0.11005
G1 X95.635 Y96.132 E0.26185
G1 X104.371 Y96.132 E0.29570
G1 X104.371 Y103.868 E0.26185
G1 X101.120 Y103.868 E0.11005
G1 X101.322 Y103.784 E0.00741
G1 X101.868 Y103.365 E0.02331
G1 X102.287 Y102.819 E0.02331
G1 X102.551 Y102.183 E0.02331
G1 X102.641 Y101.500 E0.02331
G1 X102.551 Y100.818 E0.02331
G1 X102.287 Y100.181 E0.02331
G1 X102.250 Y100.132 E0.00210
G1 X103.394 Y100.132 E0.03873
G1 E-0.01154 F1800.000 ; pressure discharge
G1 E-1.50000 F1800.00000
G1 X104.778 Y104.275 F6000.000
G1 E1.50000 F1800.00000
G1 F1017.731
G1 X95.228 Y104.275 E0.32326
G1 X95.228 Y95.725 E0.28941
G1 X104.778 Y95.725 E0.32326
G1 X104.778 Y104.215 E0.28738
G1 X104.390 Y104.179 F6000.000
G1 E-1.50000 F1800.00000
G1 X102.207 Y103.360 F6000.000
G1 E1.50000 F1800.00000
G1 F1017.731
G1 X102.414 Y103.567 E0.01065
G1 X103.033 Y103.567 E0.02252
G1 X102.476 Y103.010 E0.02867
G1 X102.678 Y102.593 E0.01686
G1 X103.652 Y103.567 E0.05014
G1 X104.070 Y103.367 E0.01689
G1 X102.849 Y102.145 E0.06288
G1 X102.921 Y101.598 E0.02007
G1 X104.070 Y102.748 E0.05918
G1 X104.070 Y102.129 E0.02252
G1 X102.883 Y100.941 E0.06113
G1 X102.993 Y100.433 E0.01893
G1 X104.070 Y101.510 E0.05544
G1 X104.070 Y100.891 E0.02252
G1 X103.612 Y100.433 E0.02358
G1 X104.070 Y100.272 E0.01767
G1 X103.755 Y99.956 E0.01626
G1 X104.070 Y99.653 E0.01593
G1 X103.755 Y99.337 E0.01626
G1 X104.070 Y99.034 E0.01593
G1 X103.755 Y98.719 E0.01626
G1 X104.070 Y98.416 E0.01593
G1 X103.755 Y98.100 E0.01626
G1 X104.070 Y97.797 E0.01593
G1 X103.755 Y97.481 E0.01626
G1 X103.858 Y96.965 E0.01914
G1 X104.070 Y97.178 E0.01095
G1 X103.657 Y96.500 F6000.000
G1 F1017.731
G1 X96.345 Y96.500 E0.17381
G1 X96.247 Y97.178 F6000.000
G1 F1017.731
G1 X96.035 Y96.965 E0.01043
G1 X95.936 Y97.456 E0.01737
G1 X96.247 Y97.768 E0.01527
G1 X95.936 Y98.046 E0.01449
G1 X96.247 Y98.358 E0.01527
G1 X95.936 Y98.636 E0.01449
G1 X96.247 Y98.947 E0.01527
G1 X95.936 Y99.226 E0.01449
G1 X96.247 Y99.537 E0.01527
G1 X95.936 Y99.816 E0.01449
G1 X96.247 Y100.127 E0.01527
G1 X95.936 Y100.406 E0.01449
G1 X97.068 Y101.538 E0.05552
G1 X97.137 Y101.016 E0.01823
G1 X96.553 Y100.433 E0.02862
G1 X95.936 Y100.995 F6000.000
G1 F1017.731
G1 X97.143 Y102.202 E0.05918
G1 E-1.50000 F1800.00000
G1 X97.520 Y103.169 F6000.000
G1 E1.50000 F1800.00000
G1 F1017.731
G1 X95.936 Y101.585 E0.07769
G1 X95.936 Y102.175 E0.02046
G1 X97.328 Y103.567 E0.06829
G1 X96.739 Y103.567 E0.02046
G1 X95.936 Y102.765 E0.03936
G1 X95.936 Y103.355 E0.02046
G1 X96.149 Y103.567 E0.01043
G1 E-1.50000 F1800.00000
G1 X99.086 Y103.908 F6000.000
G1 E1.50000 F1800.00000
G1 F1017.731
G1 X99.330 Y103.956 E0.00477
G1 F1017.731
G1 X99.677 Y103.981 E0.00521
G1 F1017.731
G1 X100.012 Y104.002 E0.00271
G1 F1017.731
G1 X100.647 Y103.960 E0.00953
G1 F1017.731
G1 X100.920 Y103.908 E0.00534
M106 S255
G1 E-1.50000 F1800.00000
G1 Z0.400 F6000.000
G1 X103.068 Y99.725 F6000.000
G1 E1.50000 F1800.00000
G1 F504.995
G1 E0.00284 F1800.000 ; pressure advance
G1 X101.317 Y99.725 E0.05929
G1 X101.578 Y99.926 E0.01114
G1 X101.932 Y100.387 E0.01968
G1 X102.154 Y100.924 E0.01968
G1 X102.230 Y101.500 E0.01968
G1 X102.154 Y102.077 E0.01968
G1 X101.932 Y102.614 E0.01968
G1 X101.578 Y103.075 E0.01968
G1 X101.117 Y103.429 E0.01968
G1 X100.580 Y103.651 E0.01968
G1 X100.003 Y103.727 E0.01968
G1 X99.427 Y103.651 E0.01968
G1 X98.890 Y103.429 E0.01968
G1 X98.429 Y103.075 E0.01968
G1 X98.075 Y102.614 E0.01968
G1 X97.852 Y102.077 E0.01968
G1 X97.776 Y101.500 E0.01968
G1 X97.838 Y101.030 E0.01606
G1 X98.072 Y100.391 E0.02304
G1 X98.429 Y99.926 E0.01984
G1 X98.690 Y99.725 E0.01114
G1 X96.934 Y99.725 E0.05944
G1 X96.934 Y97.275 E0.08293
G1 X103.068 Y97.275 E0.20766
G1 X103.068 Y99.665 E0.08091
G1 X103.094 Y100.124 F6000.000
G1 X103.476 Y100.132 F6000.000
G1 F504.995
G1 X103.475 Y96.867 E0.11051
G1 X96.526 Y96.868 E0.23521
G1 X96.526 Y100.132 E0.11049
G1 X97.757 Y100.132 E0.04164
G1 X97.711 Y100.192 E0.00256
G1 X97.440 Y100.932 E0.02667
G1 X97.366 Y101.500 E0.01939
G1 X97.456 Y102.183 E0.02331
G1 X97.719 Y102.819 E0.02331
G1 X98.138 Y103.365 E0.02331
G1 X98.684 Y103.784 E0.02331
G1 X98.887 Y103.868 E0.00741
G1 X95.635 Y103.868 E0.11005
G1 X95.635 Y96.132 E0.26185
G1 X104.371 Y96.132 E0.29570
G1 X104.371 Y103.868 E0.26185
G1 X101.120 Y103.868 E0.11005
G1 X101.322 Y103.784 E0.00741
G1 X101.868 Y103.365 E0.02331
G1 X102.287 Y102.819 E0.02331
G1 X102.551 Y102.183 E0.02331
G1 X102.641 Y101.500 E0.02331
G1 X102.551 Y100.818 E0.02331
G1 X102.287 Y100.181 E0.02331
G1 X102.250 Y100.132 E0.00210
G1 X103.416 Y100.132 E0.03946
G1 E-0.00284 F1800.000 ; pressure discharge
G1 E-1.50000 F1800.00000
G1 X104.778 Y104.275 F6000.000
G1 E1.50000 F1800.00000
G1 F504.995
G1 X95.228 Y104.275 E0.32326
G1 X95.228 Y95.725 E0.28941
G1 X104.778 Y95.725 E0.32326
G1 X104.778 Y104.215 E0.28738
G1 X104.390 Y104.179 F6000.000
G1 E-1.50000 F1800.00000
G1 X103.858 Y103.567 F6000.000
G1 E1.50000 F1800.00000
G1 F504.995
G1 X104.070 Y103.355 E0.01041
G1 X104.070 Y102.766 E0.02035
G1 X103.269 Y103.567 E0.03918
G1 X102.681 Y103.567 E0.02035
G1 X104.070 Y102.178 E0.06796
G1 X104.070 Y101.590 E0.02035
G1 X102.471 Y103.189 E0.07823
G1 E-1.50000 F1800.00000
G1 X102.863 Y102.209 F6000.000
G1 E1.50000 F1800.00000
G1 F504.995
G1 X104.070 Y101.001 E0.05907
G1 X104.070 Y100.413 E0.02035
G1 X102.939 Y101.544 E0.05534
G1 X102.871 Y101.024 E0.01814
G1 X103.462 Y100.433 E0.02893
G1 X103.776 Y100.119 F6000.000
G1 F504.995
G1 X104.070 Y99.825 E0.01439
G1 X103.776 Y99.531 E0.01439
G1 X104.070 Y99.237 E0.01439
G1 X103.776 Y98.942 E0.01439
G1 X104.070 Y98.648 E0.01439
G1 X103.776 Y98.354 E0.01439
G1 X104.070 Y98.060 E0.01440
G1 X103.776 Y97.766 E0.01439
G1 X104.070 Y97.472 E0.01440
G1 X103.776 Y97.178 E0.01439
G1 X103.989 Y96.965 E0.01040
G1 X103.679 Y96.500 F6000.000
G1 F504.995
G1 X96.323 Y96.500 E0.17483
G1 X96.149 Y96.965 F6000.000
G1 F504.995
G1 X95.936 Y97.178 E0.01095
G1 X96.226 Y97.507 E0.01596
G1 X95.936 Y97.797 E0.01491
G1 X96.226 Y98.126 E0.01596
G1 X95.936 Y98.416 E0.01491
G1 X96.226 Y98.745 E0.01596
G1 X95.936 Y99.035 E0.01491
G1 X96.226 Y99.364 E0.01596
G1 X95.936 Y99.654 E0.01491
G1 X96.226 Y99.983 E0.01596
G1 X95.936 Y100.272 E0.01491
G1 X95.936 Y100.891 E0.02252
G1 X96.394 Y100.433 E0.02359
G1 X97.013 Y100.433 E0.02252
G1 X95.936 Y101.510 E0.05544
G1 X95.936 Y102.129 E0.02252
G1 X97.124 Y100.941 E0.06113
G1 X97.086 Y101.598 E0.02394
G1 X95.936 Y102.748 E0.05918
G1 X95.936 Y103.367 E0.02252
G1 X97.158 Y102.145 E0.06288
G1 X97.329 Y102.593 E0.01745
G1 X96.355 Y103.567 E0.05013
G1 X96.973 Y103.567 E0.02252
G1 X97.531 Y103.010 E0.02867
G1 X97.799 Y103.360 E0.01606
G1 X97.592 Y103.567 E0.01065
G1 E-1.50000 F1800.00000
G1 X99.086 Y103.908 F6000.000
G1 E1.50000 F1800.00000
G1 F504.995
G1 X99.330 Y103.956 E0.00477
G1 F504.995
G1 X99.677 Y103.981 E0.00521
G1 F504.995
G1 X100.012 Y104.002 E0.00271
G1 F504.995
G1 X100.647 Y103.960 E0.00953
G1 F504.995
G1 X100.920 Y103.908 E0.00534
G1 E-1.50000 F1800.00000
G1 Z0.600 F6000.000
G1 X103.090 Y99.725 F6000.000
G1 E1.50000 F1800.00000
G1 F508.836
G1 E0.00288 F1800.000 ; pressure advance
G1 X101.317 Y99.725 E0.06002
G1 X101.579 Y99.926 E0.01118
G1 X101.941 Y100.410 E0.02046
G1 X102.154 Y100.924 E0.01883
G1 X102.230 Y101.500 E0.01968
G1 X102.154 Y102.077 E0.01968
G1 X101.932 Y102.614 E0.01968
G1 X101.578 Y103.075 E0.01968
G1 X101.117 Y103.429 E0.01968
G1 X100.580 Y103.651 E0.01968
G1 X100.003 Y103.727 E0.01968
G1 X99.427 Y103.651 E0.01968
G1 X98.890 Y103.429 E0.01968
G1 X98.428 Y103.074 E0.01972
G1 X98.065 Y102.591 E0.02046
G1 X97.852 Y102.077 E0.01883
G1 X97.776 Y101.500 E0.01968
G1 X97.838 Y101.033 E0.01595
G1 X97.965 Y100.652 E0.01361
G1 X98.075 Y100.387 E0.00971
G1 X98.429 Y99.926 E0.01968
G1 X98.690 Y99.725 E0.01114
G1 X96.912 Y99.725 E0.06018
G1 X96.912 Y97.275 E0.08293
G1 X103.090 Y97.275 E0.20912
G1 X103.090 Y99.665 E0.08091
G1 X103.124 Y100.124 F6000.000
G1 X103.497 Y100.132 F6000.000
G1 F508.836
G1 X103.497 Y96.867 E0.11051
G1 X96.505 Y96.868 E0.23668
G1 X96.505 Y100.132 E0.11049
G1 X97.757 Y100.132 E0.04238
G1 X97.719 Y100.181 E0.00210
G1 X97.583 Y100.509 E0.01201
G1 X97.439 Y100.941 E0.01542
G1 X97.366 Y101.500 E0.01908
G1 X97.456 Y102.183 E0.02331
G1 X97.709 Y102.794 E0.02238
G1 X98.135 Y103.363 E0.02408
G1 X98.684 Y103.784 E0.02343
G1 X98.887 Y103.868 E0.00741
G1 X95.635 Y103.868 E0.11005
G1 X95.635 Y96.132 E0.26185
G1 X104.371 Y96.132 E0.29570
G1 X104.371 Y103.868 E0.26185
G1 X101.120 Y103.868 E0.11005
G1 X101.322 Y103.784 E0.00741
G1 X101.868 Y103.365 E0.02331
G1 X102.287 Y102.819 E0.02331
G1 X102.551 Y102.183 E0.02331
G1 X102.641 Y101.500 E0.02331
G1 X102.551 Y100.818 E0.02331
G1 X102.298 Y100.207 E0.02238
G1 X102.242 Y100.132 E0.00315
G1 X103.437 Y100.132 E0.04045
G1 E-0.00288 F1800.000 ; pressure discharge
G1 E-1.50000 F1800.00000
G1 X104.778 Y104.275 F6000.000
G1 E1.50000 F1800.00000
G1 F508.836
G1 X95.228 Y104.275 E0.32326
G1 X95.228 Y95.725 E0.28941
G1 X104.778 Y95.725 E0.32326
G1 X104.778 Y104.215 E0.28738
G1 X104.390 Y104.179 F6000.000
G1 E-1.50000 F1800.00000
G1 X102.207 Y103.360 F6000.000
G1 E1.50000 F1800.00000
G1 F508.836
G1 X102.414 Y103.567 E0.01065
G1 X103.033 Y103.567 E0.02252
G1 X102.476 Y103.010 E0.02868
G1 X102.678 Y102.593 E0.01686
G1 X103.652 Y103.567 E0.05014
G1 X104.070 Y103.367 E0.01689
G1 X102.849 Y102.145 E0.06289
G1 X102.921 Y101.598 E0.02008
G1 X104.070 Y102.748 E0.05918
G1 X104.070 Y102.129 E0.02252
G1 X102.883 Y100.941 E0.06113
G1 X102.993 Y100.433 E0.01893
G1 X104.070 Y101.510 E0.05543
G1 X104.070 Y100.891 E0.02252
G1 X103.612 Y100.433 E0.02358
G1 X104.070 Y100.272 E0.01767
G1 X103.798 Y100.000 E0.01402
G1 X104.070 Y99.653 E0.01604
G1 X103.798 Y99.381 E0.01403
G1 X104.070 Y99.034 E0.01604
G1 X103.798 Y98.762 E0.01403
G1 X104.070 Y98.415 E0.01604
G1 X103.798 Y98.143 E0.01403
G1 X104.070 Y97.796 E0.01604
G1 X103.798 Y97.524 E0.01403
G1 X103.858 Y96.965 E0.02046
G1 X104.070 Y97.178 E0.01095
G1 X103.701 Y96.500 F6000.000
G1 F508.836
G1 X96.301 Y96.500 E0.17585
G1 X96.204 Y97.178 F6000.000
G1 F508.836
G1 X95.991 Y96.965 E0.01036
G1 X95.936 Y97.496 E0.01838
G1 X96.204 Y97.764 E0.01306
G1 X95.936 Y98.082 E0.01432
G1 X96.204 Y98.350 E0.01306
G1 X95.936 Y98.668 E0.01432
G1 X96.204 Y98.936 E0.01306
G1 X95.936 Y99.254 E0.01432
G1 X96.204 Y99.522 E0.01306
G1 X95.936 Y99.839 E0.01432
G1 X96.204 Y100.107 E0.01306
G1 X95.936 Y100.425 E0.01432
G1 X97.066 Y101.555 E0.05504
G1 X97.134 Y101.037 E0.01799
G1 X96.530 Y100.433 E0.02944
G1 X95.936 Y101.011 F6000.000
G1 F508.836
G1 X97.145 Y102.220 E0.05890
G1 E-1.50000 F1800.00000
G1 X97.587 Y103.248 F6000.000
G1 E1.50000 F1800.00000
G1 F508.836
G1 X95.936 Y101.597 E0.08044
G1 X95.936 Y102.183 E0.02018
G1 X97.320 Y103.567 E0.06745
G1 X96.735 Y103.567 E0.02018
G1 X95.936 Y102.769 E0.03890
G1 X95.936 Y103.355 E0.02018
G1 X96.149 Y103.567 E0.01036
G1 E-1.50000 F1800.00000
G1 X99.086 Y103.908 F6000.000
G1 E1.50000 F1800.00000
G1 F508.836
G1 X99.330 Y103.956 E0.00477
G1 F508.836
G1 X99.677 Y103.981 E0.00521
G1 F508.836
G1 X100.012 Y104.002 E0.00271
G1 F508.836
G1 X100.647 Y103.960 E0.00953
G1 F508.836
G1 X100.920 Y103.908 E0.00534
G1 E-1.50000 F1800.00000
G1 Z0.800 F6000.000
G1 X103.112 Y99.725 F6000.000
G1 E1.50000 F1800.00000
G1 F464.513
G1 E0.00240 F1800.000 ; pressure advance
G1 X101.317 Y99.725 E0.06076
G1 X101.578 Y99.926 E0.01114
G1 X101.932 Y100.387 E0.01968
G1 X102.154 Y100.924 E0.01968
G1 X102.230 Y101.500 E0.01968
G1 X102.154 Y102.077 E0.01968
G1 X101.932 Y102.614 E0.01968
G1 X101.578 Y103.075 E0.01968
G1 X101.117 Y103.429 E0.01968
G1 X100.580 Y103.651 E0.01968
G1 X100.003 Y103.727 E0.01968
G1 X99.427 Y103.651 E0.01968
G1 X98.890 Y103.429 E0.01968
G1 X98.427 Y103.074 E0.01974
G1 X98.061 Y102.581 E0.02077
G1 X97.852 Y102.077 E0.01849
G1 X97.776 Y101.500 E0.01968
G1 X97.838 Y101.033 E0.01594
G1 X97.960 Y100.663 E0.01321
G1 X98.075 Y100.387 E0.01012
G1 X98.429 Y99.926 E0.01968
G1 X98.690 Y99.725 E0.01114
G1 X96.890 Y99.725 E0.06091
G1 X96.890 Y97.275 E0.08293
G1 X103.112 Y97.274 E0.21059
G1 X103.112 Y99.665 E0.08093
G1 X103.130 Y100.125 F6000.000
G1 X103.519 Y100.132 F6000.000
G1 F464.513
G1 X103.519 Y96.867 E0.11054
G1 X96.483 Y96.868 E0.23815
G1 X96.483 Y100.132 E0.11049
G1 X97.757 Y100.132 E0.04311
G1 X97.719 Y100.181 E0.00210
G1 X97.578 Y100.521 E0.01244
G1 X97.439 Y100.942 E0.01501
G1 X97.366 Y101.500 E0.01905
G1 X97.456 Y102.183 E0.02331
G1 X97.704 Y102.784 E0.02201
G1 X98.134 Y103.362 E0.02439
G1 X98.684 Y103.784 E0.02348
G1 X98.887 Y103.868 E0.00741
G1 X95.635 Y103.868 E0.11005
G1 X95.635 Y96.132 E0.26185
